src/assets/icons/twitter.svg

<?xml version="1.0" encoding="UTF-8" standalone="no"?>
<svg width="46px" height="46px" viewBox="0 0 46 46" version="1.1" xmlns="http://www.w3.org/2000/svg" xmlns:xlink="http://www.w3.org/1999/xlink" xmlns:sketch="http://www.bohemiancoding.com/sketch/ns">
    <!-- Generator: Sketch 3.3.3 (12081) - http://www.bohemiancoding.com/sketch -->
    <title>Twitter</title>
    <desc>Created with Sketch.</desc>
    <defs></defs>
    <g id="Page-1" stroke-width="1" fill-rule="evenodd" sketch:type="MSPage">
        <g id="Twitter" sketch:type="MSLayerGroup">
            <circle id="Oval-1" stroke="currentColor" sketch:type="MSShapeGroup" cx="22.8452141" cy="22.79175" r="22"></circle>
            <path d="M34.8423472,15.3503244 C33.9594001,15.7417404 33.0106452,16.0062191 32.0151076,16.1253592 C33.0312296,15.5159355 33.8118784,14.5512745 34.179591,13.4016656 C33.2283411,13.9658659 32.1747928,14.3756831 31.0532535,14.5964979 C30.155336,13.639634 28.8759828,13.04175 27.4603357,13.04175 C24.7416322,13.04175 22.5375393,15.2458429 22.5375393,17.9645464 C22.5375393,18.3503484 22.5808914,18.7261701 22.6647885,19.0863976 C18.57379,18.8811771 14.9462529,16.9212903 12.5185383,13.9427864 C12.0946863,14.6701028 11.8520396,15.5156236 11.8520396,16.4179076 C11.8520396,18.1257911 12.7209518,19.6325086 14.0417858,20.5151438 C13.2349387,20.4895692 12.47581,20.2681307 11.8121183,19.8994824 C11.8118064,19.9200668 11.8118064,19.9406512 11.8118064,19.9612356 C11.8118064,22.3465338 13.5087739,24.3360497 15.7605852,24.7882833 C15.3476492,24.9008738 14.9125693,24.9610677 14.4637665,24.9610677 C14.1465792,24.9610677 13.8381247,24.9301911 13.5374674,24.8728042 C14.1640448,26.8283245 15.9820238,28.2517687 18.1359031,28.2913781 C16.451411,29.6115883 14.3287202,30.3987866 12.0223289,30.3987866 C11.6249871,30.3987866 11.2332593,30.3753952 10.848081,30.32986 C13.0265993,31.726482 15.6139992,32.54175 18.3941441,32.54175 C27.448796,32.54175 32.4002858,25.0405984 32.4002858,18.5352964 C32.4002858,18.3219669 32.3956076,18.109573 32.3859391,17.8984267 C33.3477932,17.2044821 34.182398,16.3374412 34.8423472,15.3503244" id="Fill-3" fill="currentColor" sketch:type="MSShapeGroup"></path>
        </g>
    </g>
</svg>

<svg width="46" height="46" xmlns="http://www.w3.org/2000/svg"><g fill-rule="evenodd"><circle stroke="currentColor" cx="22.845" cy="22.792" r="22"/><path d="M34.842 15.35a9.853 9.853 0 01-2.827.775 4.94 4.94 0 002.165-2.723 9.857 9.857 0 01-3.127 1.194 4.923 4.923 0 00-8.388 4.49 13.974 13.974 0 01-10.146-5.143 4.9 4.9 0 00-.667 2.475 4.92 4.92 0 002.19 4.097 4.904 4.904 0 01-2.23-.616v.062a4.926 4.926 0 003.949 4.827 4.925 4.925 0 01-2.224.085 4.928 4.928 0 004.599 3.418 9.877 9.877 0 01-6.114 2.108c-.397 0-.789-.024-1.174-.07a13.934 13.934 0 007.546 2.213c9.055 0 14.006-7.501 14.006-14.007 0-.213-.004-.425-.014-.637a10.001 10.001 0 002.456-2.548" fill="currentColor"/></g></svg>
